public/logo.svg

<svg xmlns="http://www.w3.org/2000/svg" width="36" height="36" fill="none">
  <defs/>
  <path fill="#1E2537" fill-rule="evenodd" d="M30.8765 15.4184c0 3.497-1.1921 6.7157-3.1393 9.2987l6.7158 6.7158c.9934.9934.9934 2.5829 0 3.5764-.4769.5166-1.1524.755-1.7883.755-.6358 0-1.3113-.2781-1.7882-.755l-6.7555-6.7555-.0794-.0795c-2.4638 1.669-5.4442 2.6625-8.6232 2.6625C6.91444 30.8368 0 23.9224 0 15.4184 0 6.91444 6.91444 0 15.4184 0c8.504 0 15.4581 6.91444 15.4581 15.4184zM15.4121 29.8228c7.9817 0 14.4521-6.454 14.4521-14.4154 0-7.96148-6.4704-14.415498-14.4521-14.415498C7.43042.991902.959997 7.44592.959997 15.4074c0 7.9614 6.470423 14.4154 14.452103 14.4154z" clip-rule="evenodd"/>
  <path fill="#fff" fill-rule="evenodd" d="M23.2179 9.88547c.9531 0 1.7258-.77264 1.7258-1.72574-.021-.93805-.7875-1.68753-1.7258-1.68753-.9382 0-1.7047.74948-1.7257 1.68753 0 .9531.7726 1.72574 1.7257 1.72574zM21.4317 7.8055l-4.3776-1.03016.0001-.00009 4.3775 1.03025zm-4.378-1.03025l.0004.00009-1.7002 5.18836 1.6998-5.18845zm1.7344 14.70385c-.8646.8637-2.2569 1.0302-3.426 1.0302-1.1677 0-2.5613-.1665-3.4246-1.0302h6.8506zM5.53018 17.4939c-.79574-.3493-1.30953-1.1362-1.30923-2.0052-.00056-.9201.5745-1.7424 1.43901-2.0575.86451-.3151 1.8338-.0558 2.42552.6488l-2.5553 3.4139zM25.0383 13.423c-.878-.307-1.8542-.0257-2.4341.7016l2.5034 3.4056c.8422-.3272 1.397-1.138 1.397-2.0415-.0002-.9301-.5883-1.7586-1.4663-2.0657z" clip-rule="evenodd"/>
  <path fill="#1E2537" fill-rule="evenodd" d="M4.96836 18.4999c0 3.8066 4.64133 6.9034 10.34664 6.9034 5.7053 0 10.3471-3.0968 10.348-6.9034 0-.2457-.0195-.4879-.0571-.7271.8263-.4623 1.3364-1.3368 1.3321-2.2836-.0016-1.4472-1.1743-2.6199-2.6214-2.6215-.6587-.0014-1.2935.2466-1.7768.6942-1.7301-1.1267-4.0475-1.8538-6.6136-1.9537l1.4156-4.32086 3.7179.87541c.0026 1.19047.9678 2.15445 2.1583 2.15565 1.1913-.0014 2.1568-.96686 2.1582-2.15824-.0012-1.19155-.9667-2.15726-2.1582-2.1587-.8651.00106-1.6463.51757-1.9862 1.31313l-4.0747-.95933-.0091-.00216-.3815-.08996-1.7482 5.33556c-2.663.0501-5.07687.775-6.87138 1.9268-.4762-.4221-1.09167-.6583-1.73742-.6583-1.44694.0019-2.61938 1.1746-2.62105 2.6215.00005.9096.47125 1.7543 1.24522 2.2322-.04325.2557-.06531.516-.06531.779zm.86503 0c0-.2751.029-.5493.0865-.8183.00184-.0031.00325-.0064.00468-.0097l.00181-.0042c.02307-.0523.03542-.1088.03633-.166.3006-1.1462 1.11027-2.1847 2.27504-3.0164.06672-.0256.12623-.067.17344-.1207 1.73051-1.1712 4.18551-1.9035 6.90381-1.9035 2.7461 0 5.2222.747 6.9553 1.9385.0489.0598.113.1052.1856.1315 1.1401.8313 1.9294 1.8629 2.2188 2.9991 0 .0651.0146.1294.0428.1881.0523.2561.0792.5169.0792.7816 0 3.3295-4.2534 6.0384-9.4817 6.0384-5.2282 0-9.48161-2.7085-9.48161-6.0384zm17.42911-4.4164c1.003.8023 1.7392 1.7577 2.1155 2.8061.4394-.3313.6967-.8505.6941-1.4009-.0009-.9696-.7867-1.7555-1.7564-1.7564-.3799-.0006-.7496.1227-1.0532.3512zM4.65349 15.4887c.00095-.9695.78652-1.7552 1.75601-1.7564.35907-.0001.70953.1098 1.00431.3148-1.0069.7946-1.7504 1.7422-2.13923 2.7824-.38754-.3287-.62109-.8161-.62109-1.3408zM23.2175 6.86607c-.7128 0-1.2932.58043-1.2932 1.29365s.5804 1.29323 1.2932 1.29323c.7128 0 1.2933-.58001 1.2933-1.29323 0-.71322-.58-1.29365-1.2933-1.29365zM11.6313 21.7844c.7781.7786 1.9986 1.157 3.7309 1.157 1.7322 0 2.9523-.3784 3.7313-1.157.1092-.1091.1519-.2683.112-.4175-.0399-.1492-.1564-.2658-.3056-.3058-.1491-.04-.3083.0026-.4176.1118-.6085.6076-1.6292.9035-3.1201.9035-1.4914 0-2.5112-.2959-3.1189-.9035-.1689-.169-.4428-.1691-.6118-.0003-.169.1689-.1691.4428-.0002.6118z" clip-rule="evenodd"/>
  <path fill="#FF4500" fill-rule="evenodd" d="M10.2611 17.2426c0-.8806.7392-1.6198 1.6198-1.6198.8806 0 1.5951.7392 1.5951 1.6198 0 .8806-.7141 1.5951-1.5951 1.5951-.8811 0-1.6198-.7145-1.6198-1.5951zm6.9869 0c0-.8815.74-1.6198 1.6215-1.6198.881 0 1.5951.7383 1.5951 1.6198 0 .881-.7136 1.5951-1.5951 1.5951s-1.6215-.7141-1.6215-1.5951z" clip-rule="evenodd"/>
</svg>

<svg width="36" height="36" viewBox="0 0 36 36" fill="none" xmlns="http://www.w3.org/2000/svg">
<path fill-rule="evenodd" clip-rule="evenodd" d="M30.8765 15.4184C30.8765 18.9154 29.6844 22.1341 27.7372 24.7171L34.453 31.4329C35.4464 32.4263 35.4464 34.0158 34.453 35.0093C33.9761 35.5259 33.3006 35.7643 32.6647 35.7643C32.0289 35.7643 31.3534 35.4862 30.8765 35.0093L24.121 28.2538L24.0416 28.1743C21.5778 29.8433 18.5974 30.8368 15.4184 30.8368C6.91444 30.8368 0 23.9224 0 15.4184C0 6.91444 6.91444 0 15.4184 0C23.9224 0 30.8765 6.91444 30.8765 15.4184ZM15.4121 29.8228C23.3938 29.8228 29.8642 23.3688 29.8642 15.4074C29.8642 7.44592 23.3938 0.991902 15.4121 0.991902C7.43042 0.991902 0.959997 7.44592 0.959997 15.4074C0.959997 23.3688 7.43042 29.8228 15.4121 29.8228Z" fill="#1E2537"/>
<path fill-rule="evenodd" clip-rule="evenodd" d="M23.2179 9.88547C24.171 9.88547 24.9437 9.11283 24.9437 8.15973C24.9227 7.22168 24.1562 6.4722 23.2179 6.4722C22.2797 6.4722 21.5132 7.22168 21.4922 8.15973C21.4922 9.11283 22.2648 9.88547 23.2179 9.88547ZM21.4317 7.8055L17.0541 6.77534L17.0542 6.77525L21.4317 7.8055ZM17.0537 6.77525L17.0541 6.77534L15.3539 11.9637L17.0537 6.77525ZM18.7881 21.4791C17.9235 22.3428 16.5312 22.5093 15.3621 22.5093C14.1944 22.5093 12.8008 22.3428 11.9375 21.4791H18.7881ZM5.53018 17.4939C4.73444 17.1446 4.22065 16.3577 4.22095 15.4887C4.22039 14.5686 4.79545 13.7463 5.65996 13.4312C6.52447 13.1161 7.49376 13.3754 8.08548 14.08L5.53018 17.4939ZM25.0383 13.423C24.1603 13.116 23.1841 13.3973 22.6042 14.1246L25.1076 17.5302C25.9498 17.203 26.5046 16.3922 26.5046 15.4887C26.5044 14.5586 25.9163 13.7301 25.0383 13.423Z" fill="white"/>
<path fill-rule="evenodd" clip-rule="evenodd" d="M4.96836 18.4999C4.96836 22.3065 9.60969 25.4033 15.315 25.4033C21.0203 25.4033 25.6621 22.3065 25.663 18.4999C25.663 18.2542 25.6435 18.012 25.6059 17.7728C26.4322 17.3105 26.9423 16.436 26.938 15.4892C26.9364 14.042 25.7637 12.8693 24.3166 12.8677C23.6579 12.8663 23.0231 13.1143 22.5398 13.5619C20.8097 12.4352 18.4923 11.7081 15.9262 11.6082L17.3418 7.28734L21.0597 8.16275C21.0623 9.35322 22.0275 10.3172 23.218 10.3184C24.4093 10.317 25.3748 9.35154 25.3762 8.16016C25.375 6.96861 24.4095 6.0029 23.218 6.00146C22.3529 6.00252 21.5717 6.51903 21.2318 7.31459L17.1571 6.35526L17.148 6.3531L16.7665 6.26314L15.0183 11.5987C12.3553 11.6488 9.94143 12.3737 8.14692 13.5255C7.67072 13.1034 7.05525 12.8672 6.4095 12.8672C4.96256 12.8691 3.79012 14.0418 3.78845 15.4887C3.7885 16.3983 4.2597 17.243 5.03367 17.7209C4.99042 17.9766 4.96836 18.2369 4.96836 18.4999ZM5.83339 18.4999C5.83339 18.2248 5.86239 17.9506 5.91989 17.6816C5.92173 17.6785 5.92314 17.6752 5.92457 17.6719L5.92638 17.6677C5.94945 17.6154 5.9618 17.5589 5.96271 17.5017C6.26331 16.3555 7.07298 15.317 8.23775 14.4853C8.30447 14.4597 8.36398 14.4183 8.41119 14.3646C10.1417 13.1934 12.5967 12.4611 15.315 12.4611C18.0611 12.4611 20.5372 13.2081 22.2703 14.3996C22.3192 14.4594 22.3833 14.5048 22.4559 14.5311C23.596 15.3624 24.3853 16.394 24.6747 17.5302C24.6747 17.5953 24.6893 17.6596 24.7175 17.7183C24.7698 17.9744 24.7967 18.2352 24.7967 18.4999C24.7967 21.8294 20.5433 24.5383 15.315 24.5383C10.0868 24.5383 5.83339 21.8298 5.83339 18.4999ZM23.2625 14.0835C24.2655 14.8858 25.0017 15.8412 25.378 16.8896C25.8174 16.5583 26.0747 16.0391 26.0721 15.4887C26.0712 14.5191 25.2854 13.7332 24.3157 13.7323C23.9358 13.7317 23.5661 13.855 23.2625 14.0835ZM4.65349 15.4887C4.65444 14.5192 5.44001 13.7335 6.4095 13.7323C6.76857 13.7322 7.11903 13.8421 7.41381 14.0471C6.40691 14.8417 5.66341 15.7893 5.27458 16.8295C4.88704 16.5008 4.65349 16.0134 4.65349 15.4887ZM23.2175 6.86607C22.5047 6.86607 21.9243 7.4465 21.9243 8.15972C21.9243 8.87294 22.5047 9.45295 23.2175 9.45295C23.9303 9.45295 24.5108 8.87294 24.5108 8.15972C24.5108 7.4465 23.9308 6.86607 23.2175 6.86607ZM11.6313 21.7844C12.4094 22.563 13.6299 22.9414 15.3622 22.9414C17.0944 22.9414 18.3145 22.563 19.0935 21.7844C19.2027 21.6753 19.2454 21.5161 19.2055 21.3669C19.1656 21.2177 19.0491 21.1011 18.8999 21.0611C18.7508 21.0211 18.5916 21.0637 18.4823 21.1729C17.8738 21.7805 16.8531 22.0764 15.3622 22.0764C13.8708 22.0764 12.851 21.7805 12.2433 21.1729C12.0744 21.0039 11.8005 21.0038 11.6315 21.1726C11.4625 21.3415 11.4624 21.6154 11.6313 21.7844Z" fill="#1E2537"/>
<path fill-rule="evenodd" clip-rule="evenodd" d="M10.2611 17.2426C10.2611 16.362 11.0003 15.6228 11.8809 15.6228C12.7615 15.6228 13.476 16.362 13.476 17.2426C13.476 18.1232 12.7619 18.8377 11.8809 18.8377C10.9998 18.8377 10.2611 18.1232 10.2611 17.2426ZM17.248 17.2426C17.248 16.3611 17.988 15.6228 18.8695 15.6228C19.7505 15.6228 20.4646 16.3611 20.4646 17.2426C20.4646 18.1236 19.751 18.8377 18.8695 18.8377C17.988 18.8377 17.248 18.1236 17.248 17.2426Z" fill="#FF4500"/>
</svg>
